Newaita-dark/apps/64/com.github.torikulhabib.mindi.svg

<svg height="64pt" viewBox="0 0 64 64" width="64pt" xmlns="http://www.w3.org/2000/svg" xmlns:xlink="http://www.w3.org/1999/xlink"><linearGradient id="a"><stop offset="0" stop-opacity=".313725"/><stop offset=".222222" stop-opacity=".27451"/><stop offset="1" stop-opacity="0"/></linearGradient><radialGradient id="b" cx="450.90894" cy="189.57936" gradientTransform="matrix(.00000035 -.156265 -.281277 -.0000002 66.554575 127.190669)" gradientUnits="userSpaceOnUse" r="21.166656" xlink:href="#a"/><radialGradient id="c" cx="450.90894" cy="189.57936" gradientTransform="matrix(-.00000035 .156265 .281277 .0000002 -38.770663 -15.054957)" gradientUnits="userSpaceOnUse" r="21.166656" xlink:href="#a"/><radialGradient id="d" cx="450.90894" cy="189.57936" gradientTransform="matrix(-.00000035 -.156265 .281277 -.0000002 -38.770663 127.190669)" gradientUnits="userSpaceOnUse" r="21.166656" xlink:href="#a"/><radialGradient id="e" cx="450.90894" cy="189.57936" gradientTransform="matrix(.00000035 .156265 -.281277 .0000002 66.554571 -15.054959)" gradientUnits="userSpaceOnUse" r="21.166656" xlink:href="#a"/><linearGradient id="f" gradientUnits="userSpaceOnUse" x1="31.753048" x2="31.753048" y1="56.067868" y2="5.79220824996"><stop offset="0" stop-color="#9ccc65"/><stop offset="1" stop-color="#aed581"/></linearGradient><linearGradient id="g" gradientUnits="userSpaceOnUse" x1="25.57486601492" x2="25.57486601492" y1="43.94641352091" y2="20.23044795558"><stop offset="0" stop-color="#424242"/><stop offset="1" stop-color="#616161"/></linearGradient><path d="m13.890625 56.066406h5.292969v-2.644531h-5.292969zm0 0" fill="url(#b)"/><path d="m13.890625 56.066406h-5.289063v2.648438h5.289063zm0 0" fill="url(#c)"/><path d="m13.890625 56.066406h-5.289063v-2.644531h5.289063zm0 0" fill="url(#d)"/><path d="m13.890625 56.066406h5.292969v2.648438h-5.292969zm0 0" fill="url(#e)"/><path d="m14.566406 5.792969c-.175781-.003907-.347656.007812-.519531.03125-.027344.003906-.058594.007812-.085937.011719-.011719 0-.023438.003906-.035157.003906-.015625.003906-.027343.007812-.042969.007812-1.71875.292969-3.058593 1.679688-3.269531 3.425782-.003906.027343-.007812.054687-.007812.082031-.019531.167969-.023438.335937-.019531.503906v42.238281.027344c-.019532.707031.152343 1.429688.53125 2.089844 1.101562 1.902344 3.519531 2.550781 5.421874 1.449218l36.667969-21.167968c1.296875-.746094 2.007813-2.105469 1.984375-3.5.023438-1.394532-.6875-2.753906-1.984375-3.5l-36.507812-21.078125c-.4375-.28125-.933594-.476563-1.464844-.566407-.027344-.007812-.054687-.011718-.085937-.015624-.195313-.027344-.390626-.042969-.582032-.042969zm0 0" fill="url(#f)"/><path d="m14.566406 5.792969c-.175781-.003907-.347656.007812-.519531.03125-.027344.003906-.058594.007812-.085937.011719-.011719 0-.023438.003906-.035157.003906-.015625.003906-.027343.007812-.042969.007812-1.71875.292969-3.058593 1.679688-3.269531 3.425782-.003906.027343-.007812.054687-.007812.082031-.019531.167969-.023438.335937-.019531.503906v.496094c0-.113281.007812-.222657.019531-.335938 0-.027343.003906-.054687.007812-.082031.210938-1.746094 1.550781-3.136719 3.269531-3.425781.015626-.003907.027344-.003907.042969-.007813.011719 0 .023438-.003906.035157-.003906.027343-.003906.058593-.007812.085937-.011719.171875-.023437.34375-.035156.519531-.035156.191406 0 .386719.015625.582032.046875.03125.003906.058593.007812.085937.011719.53125.09375 1.027344.289062 1.464844.566406l36.507812 21.078125c1.191407.691406 1.890625 1.898438 1.976563 3.171875.007812-.109375.011718-.222656.007812-.332031.023438-1.394532-.6875-2.753906-1.984375-3.5l-36.507812-21.078125c-.4375-.28125-.933594-.476563-1.464844-.566407-.027344-.007812-.054687-.011718-.085937-.015624-.195313-.027344-.390626-.042969-.582032-.042969zm-3.980468 46.367187c-.003907.042969-.003907.089844 0 .132813zm0 0" fill="#fff" fill-opacity=".392157"/><path d="m10.585938 9.691406c-.003907.058594-.003907.113282 0 .167969zm44.570312 20.707032c-.160156 1.175781-.839844 2.261718-1.949219 2.902343l-36.667969 21.171875c-1.902343 1.097656-4.320312.449219-5.421874-1.453125-.347657-.609375-.523438-1.269531-.53125-1.921875v1 .027344c-.019532.707031.152343 1.429688.53125 2.089844 1.101562 1.902344 3.519531 2.550781 5.421874 1.449218l36.667969-21.167968c1.296875-.746094 2.007813-2.105469 1.984375-3.5.003906-.199219-.007812-.398438-.035156-.597656zm-44.570312 20.503906v.0625c0-.011719 0-.023438 0-.035156 0-.007813 0-.015626 0-.027344zm0 0" fill-opacity=".235294"/><path d="m14.566406 5.605469c-.183594-.003907-.363281.007812-.542968.03125-.03125.003906-.058594.007812-.089844.015625-.015625 0-.027344.003906-.039063.003906-.011719.003906-.027343.003906-.042969.007812-1.800781.304688-3.203124 1.761719-3.421874 3.589844-.003907.027344-.007813.054688-.011719.085938-.019531.171875-.023438.347656-.019531.523437v-.003906 42.238281.023438c-.019532.738281.160156 1.496094.558593 2.1875 1.148438 1.988281 3.6875 2.667968 5.675781 1.519531l36.667969-21.167969c1.351563-.78125 2.101563-2.207031 2.078125-3.664062.023438-1.457032-.726562-2.882813-2.078125-3.664063l-36.5-21.074219c-.457031-.289062-.976562-.496093-1.53125-.59375-.03125-.003906-.0625-.007812-.09375-.011718h.003907c-.207032-.03125-.410157-.046875-.613282-.046875zm-.003906.375c.1875 0 .375.011719.558594.042969.027344.003906.054687.007812.082031.011718.507813.085938.976563.273438 1.394531.539063l.003906.003906 36.511719 21.078125c1.234375.714844 1.914063 2.011719 1.890625 3.335938v.007812c.023438 1.324219-.65625 2.621094-1.890625 3.335938l-36.667969 21.167968c-1.816406 1.046875-4.117187.433594-5.164062-1.382812-.363281-.632813-.527344-1.316406-.507812-1.992188v-.003906c0-.015625 0-.023438 0-.027344v-42.242187c-.003907-.160157 0-.320313.019531-.480469 0-.023438.003906-.050781.007812-.078125.199219-1.664063 1.472657-2.988281 3.113281-3.261719.011719-.003906.027344-.007812.039063-.007812.011719-.003906.023437-.003906.035156-.007813.027344-.003906.054688-.007812.082031-.007812.164063-.023438.328126-.035157.492188-.03125zm0 0" fill="#212121"/><path d="m21.832031 20.230469c-.820312 0-1.480469.765625-1.480469 1.71875v14.734375c-.460937-.136719-.957031-.210938-1.476562-.210938-2.453125 0-4.429688 1.648438-4.429688 3.695313 0 2.042969 1.976563 3.691406 4.429688 3.691406 2.457031 0 4.433594-1.648437 4.433594-3.691406v-16.246094c0-.410156.328125-.738281.738281-.738281h7.382813c.410156 0 .738281.328125.738281.738281v8.332031c-.460938-.136718-.960938-.210937-1.476563-.210937-2.457031 0-4.429687 1.648437-4.429687 3.691406 0 2.046875 1.972656 3.695313 4.429687 3.695313 2.453125 0 4.429688-1.648438 4.429688-3.695313v-13.785156c0-.953125-.660156-1.71875-1.476563-1.71875zm0 0" fill="url(#g)"/><path d="m21.832031 20.230469c-.820312 0-1.480469.765625-1.480469 1.71875v.664062c0-.953125.660157-1.722656 1.480469-1.722656h11.8125c.816407 0 1.476563.769531 1.476563 1.722656v-.664062c0-.953125-.660156-1.71875-1.476563-1.71875zm8.859375 11.8125c-2.457031 0-4.429687 1.648437-4.429687 3.691406 0 .113281.003906.222656.015625.332031.199218-1.886718 2.09375-3.359375 4.414062-3.359375.515625 0 1.015625.074219 1.476563.207031v-.660156c-.460938-.136718-.960938-.210937-1.476563-.210937zm-11.816406 4.429687c-2.453125 0-4.429688 1.648438-4.429688 3.695313 0 .109375.007813.21875.019532.328125.199218-1.886719 2.089844-3.359375 4.410156-3.359375.519531 0 1.015625.074219 1.476562.207031v-.660156c-.460937-.136719-.957031-.210938-1.476562-.210938zm0 0" fill="#fff" fill-opacity=".392157"/><path d="m24.046875 23.183594c-.410156 0-.738281.328125-.738281.738281v.992187c0-.410156.328125-.738281.738281-.738281h7.382813c.410156 0 .738281.328125.738281.738281v-.992187c0-.410156-.328125-.738281-.738281-.738281zm11.074219 12.550781c0 2.046875-1.976563 3.695313-4.429688 3.695313-2.253906 0-4.101562-1.386719-4.390625-3.199219-.027343.164062-.039062.328125-.039062.496093 0 2.046876 1.972656 3.695313 4.429687 3.695313 2.453125 0 4.429688-1.648437 4.429688-3.695313zm-11.8125 4.433594c0 2.042969-1.976563 3.691406-4.433594 3.691406-2.25 0-4.101562-1.386719-4.390625-3.195313-.023437.160157-.039063.324219-.039063.496094 0 2.042969 1.976563 3.691406 4.429688 3.691406 2.457031 0 4.433594-1.648437 4.433594-3.691406zm0 0" fill-opacity=".235294"/><path d="m174.639573-53.171704c-6.561874 0-11.842619 6.124415-11.842619 13.748687v117.863745c-3.687148-1.093646-7.655519-1.687339-11.811372-1.687339-19.623126 0-35.434117 13.186241-35.434117 29.559677 0 16.34219 15.810991 29.52843 35.434117 29.52843 19.654373 0 35.465363-13.18624 35.465363-29.52843v-129.95634c0-3.280936 2.624749-5.905686 5.905686-5.905686h59.05686c3.280937 0 5.905686 2.62475 5.905686 5.905686v66.649886c-3.687148-1.093646-7.686766-1.687339-11.811372-1.687339-19.654373 0-35.434116 13.186241-35.434116 29.52843 0 16.373436 15.779743 29.559677 35.434116 29.559677 19.623126 0 35.434116-13.186241 35.434116-29.559677v-110.27072c0-7.624272-5.280745-13.748687-11.811372-13.748687zm0 0" fill="none" stroke="#212121" stroke-linecap="round" stroke-width="3" transform="matrix(.125012 0 0 .125012 0 26.877566)"/></svg>

<?xml version="1.0" encoding="UTF-8"?>
<svg xmlns="http://www.w3.org/2000/svg" xmlns:xlink="http://www.w3.org/1999/xlink" width="64pt" height="64pt" viewBox="0 0 64 64" version="1.1">
<defs>
<radialGradient id="radial0" gradientUnits="userSpaceOnUse" cx="450.90894" cy="189.57936" fx="450.90894" fy="189.57936" r="21.166656" gradientTransform="matrix(0.000000348341,-0.156265,-0.281277,-0.000000203077,66.554575,127.190669)">
<stop offset="0" style="stop-color:rgb(0%,0%,0%);stop-opacity:0.313725;"/>
<stop offset="0.222222" style="stop-color:rgb(0%,0%,0%);stop-opacity:0.27451;"/>
<stop offset="1" style="stop-color:rgb(0%,0%,0%);stop-opacity:0;"/>
</radialGradient>
<radialGradient id="radial1" gradientUnits="userSpaceOnUse" cx="450.90894" cy="189.57936" fx="450.90894" fy="189.57936" r="21.166656" gradientTransform="matrix(-0.000000348341,0.156265,0.281277,0.000000203077,-38.770663,-15.054957)">
<stop offset="0" style="stop-color:rgb(0%,0%,0%);stop-opacity:0.313725;"/>
<stop offset="0.222222" style="stop-color:rgb(0%,0%,0%);stop-opacity:0.27451;"/>
<stop offset="1" style="stop-color:rgb(0%,0%,0%);stop-opacity:0;"/>
</radialGradient>
<radialGradient id="radial2" gradientUnits="userSpaceOnUse" cx="450.90894" cy="189.57936" fx="450.90894" fy="189.57936" r="21.166656" gradientTransform="matrix(-0.000000348341,-0.156265,0.281277,-0.000000203077,-38.770663,127.190669)">
<stop offset="0" style="stop-color:rgb(0%,0%,0%);stop-opacity:0.313725;"/>
<stop offset="0.222222" style="stop-color:rgb(0%,0%,0%);stop-opacity:0.27451;"/>
<stop offset="1" style="stop-color:rgb(0%,0%,0%);stop-opacity:0;"/>
</radialGradient>
<radialGradient id="radial3" gradientUnits="userSpaceOnUse" cx="450.90894" cy="189.57936" fx="450.90894" fy="189.57936" r="21.166656" gradientTransform="matrix(0.000000348341,0.156265,-0.281277,0.000000203077,66.554571,-15.054959)">
<stop offset="0" style="stop-color:rgb(0%,0%,0%);stop-opacity:0.313725;"/>
<stop offset="0.222222" style="stop-color:rgb(0%,0%,0%);stop-opacity:0.27451;"/>
<stop offset="1" style="stop-color:rgb(0%,0%,0%);stop-opacity:0;"/>
</radialGradient>
<linearGradient id="linear0" gradientUnits="userSpaceOnUse" x1="254" y1="233.5" x2="254" y2="-168.66667" gradientTransform="matrix(0.125012,0,0,0.125012,0,26.877566)">
<stop offset="0" style="stop-color:rgb(61.176471%,80%,39.607843%);stop-opacity:1;"/>
<stop offset="1" style="stop-color:rgb(68.235294%,83.529412%,50.588235%);stop-opacity:1;"/>
</linearGradient>
<linearGradient id="linear1" gradientUnits="userSpaceOnUse" x1="981.43005" y1="1457.5077" x2="981.43005" y2="815.11719" gradientTransform="matrix(0.0369183,0,0,0.0369183,-10.657863,-9.862293)">
<stop offset="0" style="stop-color:rgb(25.882353%,25.882353%,25.882353%);stop-opacity:1;"/>
<stop offset="1" style="stop-color:rgb(38.039216%,38.039216%,38.039216%);stop-opacity:1;"/>
</linearGradient>
</defs>
<g id="surface1">
<path style=" stroke:none;fill-rule:nonzero;fill:url(#radial0);" d="M 13.890625 56.066406 L 19.183594 56.066406 L 19.183594 53.421875 L 13.890625 53.421875 Z M 13.890625 56.066406 "/>
<path style=" stroke:none;fill-rule:nonzero;fill:url(#radial1);" d="M 13.890625 56.066406 L 8.601562 56.066406 L 8.601562 58.714844 L 13.890625 58.714844 Z M 13.890625 56.066406 "/>
<path style=" stroke:none;fill-rule:nonzero;fill:url(#radial2);" d="M 13.890625 56.066406 L 8.601562 56.066406 L 8.601562 53.421875 L 13.890625 53.421875 Z M 13.890625 56.066406 "/>
<path style=" stroke:none;fill-rule:nonzero;fill:url(#radial3);" d="M 13.890625 56.066406 L 19.183594 56.066406 L 19.183594 58.714844 L 13.890625 58.714844 Z M 13.890625 56.066406 "/>
<path style=" stroke:none;fill-rule:nonzero;fill:url(#linear0);" d="M 14.566406 5.792969 C 14.390625 5.789062 14.21875 5.800781 14.046875 5.824219 C 14.019531 5.828125 13.988281 5.832031 13.960938 5.835938 C 13.949219 5.835938 13.9375 5.839844 13.925781 5.839844 C 13.910156 5.84375 13.898438 5.847656 13.882812 5.847656 C 12.164062 6.140625 10.824219 7.527344 10.613281 9.273438 C 10.609375 9.300781 10.605469 9.328125 10.605469 9.355469 C 10.585938 9.523438 10.582031 9.691406 10.585938 9.859375 L 10.585938 52.097656 C 10.585938 52.105469 10.585938 52.117188 10.585938 52.125 C 10.566406 52.832031 10.738281 53.554688 11.117188 54.214844 C 12.21875 56.117188 14.636719 56.765625 16.539062 55.664062 L 53.207031 34.496094 C 54.503906 33.75 55.214844 32.390625 55.191406 30.996094 C 55.214844 29.601562 54.503906 28.242188 53.207031 27.496094 L 16.699219 6.417969 C 16.261719 6.136719 15.765625 5.941406 15.234375 5.851562 C 15.207031 5.84375 15.179688 5.839844 15.148438 5.835938 C 14.953125 5.808594 14.757812 5.792969 14.566406 5.792969 Z M 14.566406 5.792969 "/>
<path style=" stroke:none;fill-rule:nonzero;fill:rgb(100%,100%,100%);fill-opacity:0.392157;" d="M 14.566406 5.792969 C 14.390625 5.789062 14.21875 5.800781 14.046875 5.824219 C 14.019531 5.828125 13.988281 5.832031 13.960938 5.835938 C 13.949219 5.835938 13.9375 5.839844 13.925781 5.839844 C 13.910156 5.84375 13.898438 5.847656 13.882812 5.847656 C 12.164062 6.140625 10.824219 7.527344 10.613281 9.273438 C 10.609375 9.300781 10.605469 9.328125 10.605469 9.355469 C 10.585938 9.523438 10.582031 9.691406 10.585938 9.859375 L 10.585938 10.355469 C 10.585938 10.242188 10.59375 10.132812 10.605469 10.019531 C 10.605469 9.992188 10.609375 9.964844 10.613281 9.9375 C 10.824219 8.191406 12.164062 6.800781 13.882812 6.511719 C 13.898438 6.507812 13.910156 6.507812 13.925781 6.503906 C 13.9375 6.503906 13.949219 6.5 13.960938 6.5 C 13.988281 6.496094 14.019531 6.492188 14.046875 6.488281 C 14.21875 6.464844 14.390625 6.453125 14.566406 6.453125 C 14.757812 6.453125 14.953125 6.46875 15.148438 6.5 C 15.179688 6.503906 15.207031 6.507812 15.234375 6.511719 C 15.765625 6.605469 16.261719 6.800781 16.699219 7.078125 L 53.207031 28.15625 C 54.398438 28.847656 55.097656 30.054688 55.183594 31.328125 C 55.191406 31.21875 55.195312 31.105469 55.191406 30.996094 C 55.214844 29.601562 54.503906 28.242188 53.207031 27.496094 L 16.699219 6.417969 C 16.261719 6.136719 15.765625 5.941406 15.234375 5.851562 C 15.207031 5.84375 15.179688 5.839844 15.148438 5.835938 C 14.953125 5.808594 14.757812 5.792969 14.566406 5.792969 Z M 10.585938 52.160156 C 10.582031 52.203125 10.582031 52.25 10.585938 52.292969 Z M 10.585938 52.160156 "/>
<path style=" stroke:none;fill-rule:nonzero;fill:rgb(0%,0%,0%);fill-opacity:0.235294;" d="M 10.585938 9.691406 C 10.582031 9.75 10.582031 9.804688 10.585938 9.859375 Z M 55.15625 30.398438 C 54.996094 31.574219 54.316406 32.660156 53.207031 33.300781 L 16.539062 54.472656 C 14.636719 55.570312 12.21875 54.921875 11.117188 53.019531 C 10.769531 52.410156 10.59375 51.75 10.585938 51.097656 L 10.585938 52.097656 C 10.585938 52.105469 10.585938 52.117188 10.585938 52.125 C 10.566406 52.832031 10.738281 53.554688 11.117188 54.214844 C 12.21875 56.117188 14.636719 56.765625 16.539062 55.664062 L 53.207031 34.496094 C 54.503906 33.75 55.214844 32.390625 55.191406 30.996094 C 55.195312 30.796875 55.183594 30.597656 55.15625 30.398438 Z M 10.585938 50.902344 L 10.585938 50.964844 C 10.585938 50.953125 10.585938 50.941406 10.585938 50.929688 C 10.585938 50.921875 10.585938 50.914062 10.585938 50.902344 Z M 10.585938 50.902344 "/>
<path style=" stroke:none;fill-rule:nonzero;fill:rgb(12.941176%,12.941176%,12.941176%);fill-opacity:1;" d="M 14.566406 5.605469 C 14.382812 5.601562 14.203125 5.613281 14.023438 5.636719 C 13.992188 5.640625 13.964844 5.644531 13.933594 5.652344 C 13.917969 5.652344 13.90625 5.65625 13.894531 5.65625 C 13.882812 5.660156 13.867188 5.660156 13.851562 5.664062 C 12.050781 5.96875 10.648438 7.425781 10.429688 9.253906 C 10.425781 9.28125 10.421875 9.308594 10.417969 9.339844 C 10.398438 9.511719 10.394531 9.6875 10.398438 9.863281 L 10.398438 9.859375 L 10.398438 52.097656 C 10.398438 52.109375 10.398438 52.113281 10.398438 52.121094 C 10.378906 52.859375 10.558594 53.617188 10.957031 54.308594 C 12.105469 56.296875 14.644531 56.976562 16.632812 55.828125 L 53.300781 34.660156 C 54.652344 33.878906 55.402344 32.453125 55.378906 30.996094 C 55.402344 29.539062 54.652344 28.113281 53.300781 27.332031 L 16.800781 6.257812 C 16.34375 5.96875 15.824219 5.761719 15.269531 5.664062 C 15.238281 5.660156 15.207031 5.65625 15.175781 5.652344 L 15.179688 5.652344 C 14.972656 5.621094 14.769531 5.605469 14.566406 5.605469 Z M 14.5625 5.980469 C 14.75 5.980469 14.9375 5.992188 15.121094 6.023438 C 15.148438 6.027344 15.175781 6.03125 15.203125 6.035156 C 15.710938 6.121094 16.179688 6.308594 16.597656 6.574219 L 16.601562 6.578125 L 53.113281 27.65625 C 54.347656 28.371094 55.027344 29.667969 55.003906 30.992188 L 55.003906 31 C 55.027344 32.324219 54.347656 33.621094 53.113281 34.335938 L 16.445312 55.503906 C 14.628906 56.550781 12.328125 55.9375 11.28125 54.121094 C 10.917969 53.488281 10.753906 52.804688 10.773438 52.128906 L 10.773438 52.125 C 10.773438 52.109375 10.773438 52.101562 10.773438 52.097656 L 10.773438 9.855469 C 10.769531 9.695312 10.773438 9.535156 10.792969 9.375 C 10.792969 9.351562 10.796875 9.324219 10.800781 9.296875 C 11 7.632812 12.273438 6.308594 13.914062 6.035156 C 13.925781 6.03125 13.941406 6.027344 13.953125 6.027344 C 13.964844 6.023438 13.976562 6.023438 13.988281 6.019531 C 14.015625 6.015625 14.042969 6.011719 14.070312 6.011719 C 14.234375 5.988281 14.398438 5.976562 14.5625 5.980469 Z M 14.5625 5.980469 "/>
<path style=" stroke:none;fill-rule:nonzero;fill:url(#linear1);" d="M 21.832031 20.230469 C 21.011719 20.230469 20.351562 20.996094 20.351562 21.949219 L 20.351562 36.683594 C 19.890625 36.546875 19.394531 36.472656 18.875 36.472656 C 16.421875 36.472656 14.445312 38.121094 14.445312 40.167969 C 14.445312 42.210938 16.421875 43.859375 18.875 43.859375 C 21.332031 43.859375 23.308594 42.210938 23.308594 40.167969 L 23.308594 23.921875 C 23.308594 23.511719 23.636719 23.183594 24.046875 23.183594 L 31.429688 23.183594 C 31.839844 23.183594 32.167969 23.511719 32.167969 23.921875 L 32.167969 32.253906 C 31.707031 32.117188 31.207031 32.042969 30.691406 32.042969 C 28.234375 32.042969 26.261719 33.691406 26.261719 35.734375 C 26.261719 37.78125 28.234375 39.429688 30.691406 39.429688 C 33.144531 39.429688 35.121094 37.78125 35.121094 35.734375 L 35.121094 21.949219 C 35.121094 20.996094 34.460938 20.230469 33.644531 20.230469 Z M 21.832031 20.230469 "/>
<path style=" stroke:none;fill-rule:nonzero;fill:rgb(100%,100%,100%);fill-opacity:0.392157;" d="M 21.832031 20.230469 C 21.011719 20.230469 20.351562 20.996094 20.351562 21.949219 L 20.351562 22.613281 C 20.351562 21.660156 21.011719 20.890625 21.832031 20.890625 L 33.644531 20.890625 C 34.460938 20.890625 35.121094 21.660156 35.121094 22.613281 L 35.121094 21.949219 C 35.121094 20.996094 34.460938 20.230469 33.644531 20.230469 Z M 30.691406 32.042969 C 28.234375 32.042969 26.261719 33.691406 26.261719 35.734375 C 26.261719 35.847656 26.265625 35.957031 26.277344 36.066406 C 26.476562 34.179688 28.371094 32.707031 30.691406 32.707031 C 31.207031 32.707031 31.707031 32.78125 32.167969 32.914062 L 32.167969 32.253906 C 31.707031 32.117188 31.207031 32.042969 30.691406 32.042969 Z M 18.875 36.472656 C 16.421875 36.472656 14.445312 38.121094 14.445312 40.167969 C 14.445312 40.277344 14.453125 40.386719 14.464844 40.496094 C 14.664062 38.609375 16.554688 37.136719 18.875 37.136719 C 19.394531 37.136719 19.890625 37.210938 20.351562 37.34375 L 20.351562 36.683594 C 19.890625 36.546875 19.394531 36.472656 18.875 36.472656 Z M 18.875 36.472656 "/>
<path style=" stroke:none;fill-rule:nonzero;fill:rgb(0%,0%,0%);fill-opacity:0.235294;" d="M 24.046875 23.183594 C 23.636719 23.183594 23.308594 23.511719 23.308594 23.921875 L 23.308594 24.914062 C 23.308594 24.503906 23.636719 24.175781 24.046875 24.175781 L 31.429688 24.175781 C 31.839844 24.175781 32.167969 24.503906 32.167969 24.914062 L 32.167969 23.921875 C 32.167969 23.511719 31.839844 23.183594 31.429688 23.183594 Z M 35.121094 35.734375 C 35.121094 37.78125 33.144531 39.429688 30.691406 39.429688 C 28.4375 39.429688 26.589844 38.042969 26.300781 36.230469 C 26.273438 36.394531 26.261719 36.558594 26.261719 36.726562 C 26.261719 38.773438 28.234375 40.421875 30.691406 40.421875 C 33.144531 40.421875 35.121094 38.773438 35.121094 36.726562 Z M 23.308594 40.167969 C 23.308594 42.210938 21.332031 43.859375 18.875 43.859375 C 16.625 43.859375 14.773438 42.472656 14.484375 40.664062 C 14.460938 40.824219 14.445312 40.988281 14.445312 41.160156 C 14.445312 43.203125 16.421875 44.851562 18.875 44.851562 C 21.332031 44.851562 23.308594 43.203125 23.308594 41.160156 Z M 23.308594 40.167969 "/>
<path style="fill:none;stroke-width:3;stroke-linecap:round;stroke-linejoin:miter;stroke:rgb(12.941176%,12.941176%,12.941176%);stroke-opacity:1;stroke-miterlimit:4;" d="M 174.639573 -53.171704 C 168.077699 -53.171704 162.796954 -47.047289 162.796954 -39.423017 L 162.796954 78.440728 C 159.109806 77.347082 155.141435 76.753389 150.985582 76.753389 C 131.362456 76.753389 115.551465 89.93963 115.551465 106.313066 C 115.551465 122.655256 131.362456 135.841496 150.985582 135.841496 C 170.639955 135.841496 186.450945 122.655256 186.450945 106.313066 L 186.450945 -23.643274 C 186.450945 -26.92421 189.075694 -29.54896 192.356631 -29.54896 L 251.413491 -29.54896 C 254.694428 -29.54896 257.319177 -26.92421 257.319177 -23.643274 L 257.319177 43.006612 C 253.632029 41.912966 249.632411 41.319273 245.507805 41.319273 C 225.853432 41.319273 210.073689 54.505514 210.073689 70.847703 C 210.073689 87.221139 225.853432 100.40738 245.507805 100.40738 C 265.130931 100.40738 280.941921 87.221139 280.941921 70.847703 L 280.941921 -39.423017 C 280.941921 -47.047289 275.661176 -53.171704 269.130549 -53.171704 Z M 174.639573 -53.171704 " transform="matrix(0.125012,0,0,0.125012,0,26.877566)"/>
</g>
</svg>
